img/visa.svg

<svg width="64" height="64" viewBox="0 0 64 64" fill="none" xmlns="http://www.w3.org/2000/svg">
<path d="M28.4188 40.4464H24.0238L26.7707 23.5654H31.1661L28.4188 40.4464ZM20.3265 23.5654L16.1365 35.1763L15.6407 32.676L15.6412 32.6769L14.1623 25.0854C14.1623 25.0854 13.9835 23.5654 12.0775 23.5654H5.15062L5.06934 23.8513C5.06934 23.8513 7.18758 24.292 9.66663 25.7808L13.485 40.4469H18.0642L25.0566 23.5654H20.3265ZM54.8954 40.4464H58.9309L55.4124 23.565H51.8794C50.248 23.565 49.8506 24.823 49.8506 24.823L43.2958 40.4464H47.8773L48.7935 37.9389H54.3806L54.8954 40.4464ZM50.0592 34.475L52.3685 28.1578L53.6676 34.475H50.0592ZM43.6394 27.6249L44.2666 23.9998C44.2666 23.9998 42.3313 23.2638 40.3137 23.2638C38.1327 23.2638 32.9534 24.217 32.9534 28.8523C32.9534 33.2134 39.0322 33.2676 39.0322 35.5583C39.0322 37.8491 33.5797 37.4386 31.7802 35.9941L31.1268 39.7844C31.1268 39.7844 33.0893 40.7377 36.0876 40.7377C39.0869 40.7377 43.6114 39.1848 43.6114 34.9582C43.6114 30.5691 37.478 30.1604 37.478 28.2521C37.4784 26.3434 41.7587 26.5886 43.6394 27.6249Z" fill="#2566AF"/>
<path d="M15.6412 32.6764L14.1624 25.0849C14.1624 25.0849 13.9835 23.5649 12.0775 23.5649H5.15062L5.06934 23.8508C5.06934 23.8508 8.39867 24.5408 11.5921 27.1259C14.6455 29.5968 15.6412 32.6764 15.6412 32.6764Z" fill="#E6A540"/>
</svg>

<svg width="64" height="64" fill="none" xmlns="http://www.w3.org/2000/svg"><path d="M28.419 40.446h-4.395l2.747-16.88h4.395l-2.747 16.88zm-8.093-16.88l-4.19 11.61-.495-2.5-1.479-7.59s-.179-1.52-2.085-1.52H5.152l-.082.285s2.119.441 4.598 1.93l3.818 14.666h4.58l6.992-16.882h-4.73zm34.57 16.88h4.035l-3.519-16.881H51.88c-1.631 0-2.028 1.258-2.028 1.258l-6.555 15.623h4.581l.916-2.507h5.588l.514 2.507zm-4.837-5.971l2.31-6.317 1.299 6.317h-3.609zm-6.42-6.85L44.267 24s-1.936-.736-3.953-.736c-2.181 0-7.36.953-7.36 5.588 0 4.361 6.078 4.416 6.078 6.706 0 2.291-5.452 1.88-7.252.436l-.653 3.79s1.962.954 4.96.954c3 0 7.524-1.553 7.524-5.78 0-4.389-6.133-4.798-6.133-6.706 0-1.909 4.28-1.663 6.161-.627z" fill="#2566AF"/><path d="M15.641 32.676l-1.479-7.591s-.179-1.52-2.085-1.52H5.152l-.082.286s3.33.69 6.523 3.275c3.053 2.47 4.05 5.55 4.05 5.55z" fill="#E6A540"/></svg>
